src/assets/compendia/icons/tokens-core/faction-vulcan-rank-6-token.svg

<svg xmlns="http://www.w3.org/2000/svg" xml:space="preserve" style="fill-rule:evenodd;clip-rule:evenodd;stroke-linecap:round;stroke-miterlimit:1.5" viewBox="0 0 256 256"><path d="M0 0h256v256H0z" style="fill:none"/><g><circle cx="128" cy="128" r="128"/><path d="M128 0c70.645 0 128 57.355 128 128s-57.355 128-128 128S0 198.645 0 128 57.355 0 128 0m0 8C61.77 8 8 61.77 8 128s53.77 120 120 120 120-53.77 120-120S194.23 8 128 8" style="fill:#dbba57"/><path d="m2228.75 34.514 5.06 1.404v.012l-4.2 4.2s-.01-.004-.01-.012c-.73-2.656-1.2-4.352-1.4-5.088.12-.04.23-.112.35-.216.09-.112.16-.212.2-.3m2.5 3.168-1.56 2.256 1.77-2.184 2.19-1.776-2.25 1.56-2.77-2.616zm1.6-2.232-2.7-.744c.01-.056.02-.136.02-.24q0-.54-.27-.996a1.9 1.9 0 0 0-.71-.72 1.9 1.9 0 0 0-.99-.264c-.36 0-.69.088-1 .264q-.45.264-.72.72a2 2 0 0 0-.26.99 2 2 0 0 0 .26.99q.27.456.72.72c.31.176.64.264 1 .264q.12 0 .18-.012l.74 2.7h-.11c-.69 0-1.34-.176-1.94-.528a3.75 3.75 0 0 1-1.37-1.368c-.35-.6-.53-1.248-.53-1.944s.18-1.344.53-1.944c.34-.576.79-1.032 1.37-1.368.6-.352 1.25-.528 1.94-.528q1.05 0 1.95.528c.57.336 1.03.792 1.37 1.368.35.6.52 1.248.52 1.944zm-5-.504a.8.8 0 0 1-.58-.246.78.78 0 0 1-.25-.588c0-.228.08-.424.25-.588a.8.8 0 0 1 .58-.246c.22 0 .42.082.58.246.17.164.25.36.25.588q0 .342-.24.588a.8.8 0 0 1-.59.246" style="fill:#dbba57;fill-rule:nonzero" transform="translate(-40926.8 -527.044)scale(18.4162)"/><circle cx="1928" cy="1439" r="9" style="fill:#dbba57;stroke:#dbba57;stroke-width:8px" transform="rotate(14 5914.613 -6601.92)"/><circle cx="1928" cy="1439" r="9" style="fill:#dbba57;stroke:#dbba57;stroke-width:8px" transform="translate(-1800 -1200)"/><circle cx="1928" cy="1439" r="9" style="fill:#dbba57;stroke:#dbba57;stroke-width:8px" transform="rotate(-14 -3858.605 8057.9)"/></g></svg>

<?xml version="1.0" encoding="UTF-8" standalone="no"?>
<!DOCTYPE svg PUBLIC "-//W3C//DTD SVG 1.1//EN" "http://www.w3.org/Graphics/SVG/1.1/DTD/svg11.dtd">
<svg width="100%" height="100%" viewBox="0 0 256 256" version="1.1" xmlns="http://www.w3.org/2000/svg" xmlns:xlink="http://www.w3.org/1999/xlink" xml:space="preserve" xmlns:serif="http://www.serif.com/" style="fill-rule:evenodd;clip-rule:evenodd;stroke-linecap:round;stroke-miterlimit:1.5;">
    <g transform="matrix(1,0,0,1,-6300,-2700)">
        <g transform="matrix(1,0,0,1,6300,2700)">
            <rect id="faction-vulcan-rank-6-token" x="0" y="0" width="256" height="256" style="fill:none;"/>
            <g id="faction-vulcan-rank-6-token1" serif:id="faction-vulcan-rank-6-token">
                <circle cx="128" cy="128" r="128"/>
                <path d="M128,0C198.645,0 256,57.355 256,128C256,198.645 198.645,256 128,256C57.355,256 0,198.645 0,128C0,57.355 57.355,0 128,0ZM128,8C61.77,8 8,61.77 8,128C8,194.23 61.77,248 128,248C194.23,248 248,194.23 248,128C248,61.77 194.23,8 128,8Z" style="fill:rgb(219,186,87);"/>
                <g transform="matrix(18.4162,0,0,18.4162,-40926.8,-527.044)">
                    <g id="Vulcan">
                        <path id="Vulcan1" serif:id="Vulcan" d="M2228.75,34.514L2233.81,35.918L2233.81,35.93L2229.61,40.13C2229.61,40.13 2229.6,40.126 2229.6,40.118C2228.87,37.462 2228.4,35.766 2228.2,35.03C2228.32,34.99 2228.43,34.918 2228.55,34.814C2228.64,34.702 2228.71,34.602 2228.75,34.514ZM2231.25,37.682L2229.69,39.938L2231.46,37.754L2233.65,35.978L2231.4,37.538L2228.63,34.922L2231.25,37.682ZM2232.85,35.45L2230.15,34.706C2230.16,34.65 2230.17,34.57 2230.17,34.466C2230.17,34.106 2230.08,33.774 2229.9,33.47C2229.73,33.166 2229.49,32.926 2229.19,32.75C2228.89,32.574 2228.56,32.486 2228.2,32.486C2227.84,32.486 2227.51,32.574 2227.2,32.75C2226.9,32.926 2226.66,33.166 2226.48,33.47C2226.31,33.774 2226.22,34.104 2226.22,34.46C2226.22,34.816 2226.31,35.146 2226.48,35.45C2226.66,35.754 2226.9,35.994 2227.2,36.17C2227.51,36.346 2227.84,36.434 2228.2,36.434C2228.28,36.434 2228.34,36.43 2228.38,36.422L2229.12,39.122L2229.01,39.122C2228.32,39.122 2227.67,38.946 2227.07,38.594C2226.49,38.258 2226.04,37.802 2225.7,37.226C2225.35,36.626 2225.17,35.978 2225.17,35.282C2225.17,34.586 2225.35,33.938 2225.7,33.338C2226.04,32.762 2226.49,32.306 2227.07,31.97C2227.67,31.618 2228.32,31.442 2229.01,31.442C2229.71,31.442 2230.36,31.618 2230.96,31.97C2231.53,32.306 2231.99,32.762 2232.33,33.338C2232.68,33.938 2232.85,34.586 2232.85,35.282L2232.85,35.45ZM2227.85,34.946C2227.63,34.946 2227.43,34.864 2227.27,34.7C2227.1,34.536 2227.02,34.34 2227.02,34.112C2227.02,33.884 2227.1,33.688 2227.27,33.524C2227.43,33.36 2227.63,33.278 2227.85,33.278C2228.07,33.278 2228.27,33.36 2228.43,33.524C2228.6,33.688 2228.68,33.884 2228.68,34.112C2228.68,34.34 2228.6,34.536 2228.44,34.7C2228.28,34.864 2228.08,34.946 2227.85,34.946Z" style="fill:rgb(219,186,87);fill-rule:nonzero;"/>
                    </g>
                </g>
                <g transform="matrix(0.970296,0.241922,-0.241922,0.970296,-1421.46,-1626.98)">
                    <circle cx="1928" cy="1439" r="9" style="fill:rgb(219,186,87);stroke:rgb(219,186,87);stroke-width:8px;"/>
                </g>
                <g transform="matrix(1,0,0,1,-1800,-1200)">
                    <circle cx="1928" cy="1439" r="9" style="fill:rgb(219,186,87);stroke:rgb(219,186,87);stroke-width:8px;"/>
                </g>
                <g transform="matrix(0.970296,-0.241922,0.241922,0.970296,-2064,-694.127)">
                    <circle cx="1928" cy="1439" r="9" style="fill:rgb(219,186,87);stroke:rgb(219,186,87);stroke-width:8px;"/>
                </g>
            </g>
        </g>
    </g>
</svg>
